X: 31309
T: Paddy Kelly's
R: reel
M: 4/4
K: Gmajor
B|dG~G2 dGBd|c=F~F2 cFAc|dG~G2 DGBG|BdcA ~G2Bc|
dG~G2 DGBd|c=F~F2 CFAc|dG~G2 DGBG|BdcA G3:|
B|dggf gagf|dedc ABcA|dggf gagf|defg ~a2gf|
dggf gagf|dedc ABcA|dG~G2 DGBG|BdcA GABc|
dggf gagf|dedc ABcA|dg~g2 bgaf|defg ~a2gf|
dggf gagf|dedc ABcA|dG~G2 DGBG|BdcA G3||

